blockchains/ethereum/assets/0x91E84EC6101547C1FA39Dd565dd8b020E3c20CF2/logo.svg

<svg fill="none" height="250" viewBox="0 0 250 250" width="250" xmlns="http://www.w3.org/2000/svg"><g fill="#fff"><path d="m125.2 13.7502c61.3 0 111 49.7 111 110.9998 0 61.3-49.7 111-111 111-61.3001 0-111.0001-49.7-111.0001-111 0-61.2998 49.7-110.9998 111.0001-110.9998zm0-12.3c-16.65 0-32.8001 3.25-48.0001 9.7-14.7 6.2-27.85 15.05-39.2 26.4s-20.2 24.5-26.4 39.2c-6.45 15.2-9.7 31.3498-9.7 47.9998s3.25 32.8 9.7 48c6.2 14.7 15.1 27.85 26.4 39.2 11.3 11.3 24.5 20.2 39.2 26.4 15.2 6.45 31.3501 9.7 48.0001 9.7s32.8-3.25 48-9.7c14.7-6.2 27.85-15.1 39.2-26.4 11.3-11.3 20.2-24.5 26.4-39.2 6.45-15.2 9.7-31.35 9.7-48s-3.25-32.7998-9.7-47.9998c-6.2-14.7-15.1-27.85-26.4-39.2s-24.5-20.2-39.2-26.4c-15.2-6.45-31.35-9.7-48-9.7z"/><path d="m125.2 136c5.882 0 10.65-4.768 10.65-10.65s-4.768-10.65-10.65-10.65-10.65 4.768-10.65 10.65 4.768 10.65 10.65 10.65z"/></g></svg>

<svg width="250" height="250" viewBox="0 0 250 250" fill="none" xmlns="http://www.w3.org/2000/svg">
<path d="M125.2 13.7502C186.5 13.7502 236.2 63.4502 236.2 124.75C236.2 186.05 186.5 235.75 125.2 235.75C63.8999 235.75 14.1999 186.05 14.1999 124.75C14.1999 63.4502 63.8999 13.7502 125.2 13.7502ZM125.2 1.4502C108.55 1.4502 92.3999 4.7002 77.1999 11.1502C62.4999 17.3502 49.3499 26.2002 37.9999 37.5502C26.6499 48.9002 17.7999 62.0502 11.5999 76.7502C5.1499 91.9502 1.8999 108.1 1.8999 124.75C1.8999 141.4 5.1499 157.55 11.5999 172.75C17.7999 187.45 26.6999 200.6 37.9999 211.95C49.2999 223.25 62.4999 232.15 77.1999 238.35C92.3999 244.8 108.55 248.05 125.2 248.05C141.85 248.05 158 244.8 173.2 238.35C187.9 232.15 201.05 223.25 212.4 211.95C223.7 200.65 232.6 187.45 238.8 172.75C245.25 157.55 248.5 141.4 248.5 124.75C248.5 108.1 245.25 91.9502 238.8 76.7502C232.6 62.0502 223.7 48.9002 212.4 37.5502C201.1 26.2002 187.9 17.3502 173.2 11.1502C158 4.7002 141.85 1.4502 125.2 1.4502Z" fill="white"/>
<path d="M125.2 136C131.082 136 135.85 131.232 135.85 125.35C135.85 119.468 131.082 114.7 125.2 114.7C119.318 114.7 114.55 119.468 114.55 125.35C114.55 131.232 119.318 136 125.2 136Z" fill="white"/>
</svg>
